src/icons/prolog.svg

<svg viewBox="0 0 24 24" xmlns="http://www.w3.org/2000/svg">
  <path
    d="M12 15.385C12.4699 16.0958 13.1099 16.6777 13.862 17.078L12 18.94L10.138 17.078C10.8918 16.6801 11.5324 16.0976 12 15.385ZM16.232 11.322C15.783 11.322 15.3524 11.5004 15.0349 11.8179C14.7174 12.1354 14.539 12.566 14.539 13.015C14.539 13.464 14.7174 13.8947 15.0349 14.2122C15.3524 14.5297 15.783 14.708 16.232 14.708C16.4544 14.708 16.6745 14.6642 16.8799 14.5792C17.0853 14.4941 17.272 14.3694 17.4292 14.2122C17.5864 14.0549 17.7111 13.8683 17.7962 13.6629C17.8812 13.4575 17.925 13.2374 17.925 13.015C17.925 12.075 17.163 11.322 16.232 11.322ZM7.76804 11.322C7.31903 11.322 6.88841 11.5004 6.57091 11.8179C6.25341 12.1354 6.07504 12.566 6.07504 13.015C6.07504 13.464 6.25341 13.8947 6.57091 14.2122C6.88841 14.5297 7.31903 14.708 7.76804 14.708C8.21705 14.708 8.64767 14.5297 8.96517 14.2122C9.28267 13.8947 9.46104 13.464 9.46104 13.015C9.46104 12.075 8.69904 11.322 7.76804 11.322ZM16.232 9.20603C16.6766 9.20603 17.1169 9.29361 17.5277 9.46379C17.9384 9.63396 18.3116 9.88339 18.6259 10.1978C18.9403 10.5123 19.1896 10.8855 19.3597 11.2963C19.5297 11.7071 19.6172 12.1474 19.617 12.592C19.617 13.0366 19.5295 13.4767 19.3594 13.8874C19.1893 14.2981 18.9399 14.6713 18.6256 14.9856C18.3113 15.2999 17.9381 15.5492 17.5274 15.7194C17.1167 15.8895 16.6766 15.977 16.232 15.977C15.7874 15.9772 15.3472 15.8897 14.9363 15.7196C14.5255 15.5496 14.1523 15.3003 13.8378 14.9859C13.5234 14.6716 13.274 14.2984 13.1038 13.8876C12.9336 13.4769 12.846 13.0366 12.846 12.592C12.8459 12.1473 12.9334 11.707 13.1035 11.2961C13.2736 10.8852 13.523 10.5119 13.8375 10.1975C14.1519 9.88302 14.5253 9.63362 14.9361 9.4635C15.347 9.29339 15.7873 9.20589 16.232 9.20603ZM7.76804 9.20603C8.21273 9.20589 8.65309 9.29339 9.06396 9.4635C9.47483 9.63362 9.84815 9.88302 10.1626 10.1975C10.477 10.5119 10.7264 10.8852 10.8966 11.2961C11.0667 11.707 11.1542 12.1473 11.154 12.592C11.154 13.0366 11.0665 13.4769 10.8963 13.8876C10.7261 14.2984 10.4767 14.6716 10.1622 14.9859C9.84781 15.3003 9.47453 15.5496 9.06373 15.7196C8.65293 15.8897 8.21265 15.9772 7.76804 15.977C6.87028 15.977 6.00929 15.6204 5.37448 14.9856C4.73967 14.3508 4.38304 13.4898 4.38304 12.592C4.38291 12.1474 4.47037 11.7071 4.64042 11.2963C4.81047 10.8855 5.05979 10.5123 5.37413 10.1978C5.68847 9.88339 6.06167 9.63396 6.47243 9.46379C6.88318 9.29361 7.32343 9.20603 7.76804 9.20603ZM3.74004 2.69003C5.23004 5.82203 4.15504 8.15803 3.15604 10.477C2.85129 11.1409 2.69271 11.8625 2.69104 12.593C2.69104 13.9398 3.22604 15.2314 4.17835 16.1837C5.13066 17.136 6.42227 17.671 7.76904 17.671C7.94727 17.6655 8.12514 17.6515 8.30204 17.629L10.808 20.134L12 21.31L13.194 20.133L15.699 17.628C15.877 17.653 16.054 17.662 16.232 17.67C17.5788 17.67 18.8704 17.135 19.8227 16.1827C20.775 15.2304 21.31 13.9388 21.31 12.592C21.3084 11.8615 21.1498 11.1399 20.845 10.476C19.846 8.15703 18.771 5.82103 20.261 2.68903C18.026 4.43303 14.844 5.81203 12.001 5.82103C9.15604 5.81303 5.97404 4.43303 3.74004 2.68903V2.69003Z"
    fill="#EF5350"
  />
</svg>

<svg viewBox="0 0 24 24" xmlns="http://www.w3.org/2000/svg"><path d="M12 15.385a5.11 5.11 0 0 0 1.862 1.693L12 18.94l-1.862-1.862A5.043 5.043 0 0 0 12 15.385m4.232-4.063a1.693 1.693 0 0 0-1.693 1.693 1.693 1.693 0 0 0 1.693 1.693 1.693 1.693 0 0 0 1.693-1.693c0-.94-.762-1.693-1.693-1.693m-8.464 0a1.693 1.693 0 0 0-1.693 1.693 1.693 1.693 0 0 0 1.693 1.693 1.693 1.693 0 0 0 1.693-1.693c0-.94-.762-1.693-1.693-1.693m8.464-2.116a3.385 3.385 0 0 1 3.385 3.386 3.385 3.385 0 0 1-3.385 3.385 3.385 3.385 0 0 1-3.386-3.385 3.385 3.385 0 0 1 3.386-3.386m-8.464 0a3.385 3.385 0 0 1 3.386 3.386 3.385 3.385 0 0 1-3.386 3.385 3.385 3.385 0 0 1-3.385-3.385 3.385 3.385 0 0 1 3.385-3.386M3.74 2.69c1.49 3.132.415 5.468-.584 7.787a5.1 5.1 0 0 0-.465 2.116 5.078 5.078 0 0 0 5.078 5.078 5.6 5.6 0 0 0 .533-.042l2.506 2.505L12 21.31l1.194-1.177 2.505-2.505c.178.025.355.034.533.042a5.078 5.078 0 0 0 5.078-5.078 5.1 5.1 0 0 0-.465-2.116c-.999-2.319-2.074-4.655-.584-7.787-2.235 1.744-5.417 3.123-8.26 3.132-2.845-.008-6.027-1.388-8.261-3.132z" style="fill:#ef5350;stroke-width:.84638"/></svg>
